X: 749
T: Touch and go
P: Longways for as many as will
%R: march, reel
B: "The Dancing-Master: Containing Directions and Tunes for Dancing" printed by W. Pearson for John Walsh, London ca. 1709
S: 7: DMDfD http://digital.nls.uk/special-collections-of-printed-music/pageturner.cfm?id=89751228 p.277 "B b"
Z: 2013 John Chambers <jc:trillian.mit.edu>
N: Repeats added to satisfy the dance instructions.
M: C|
L: 1/8
K: C
% - - - - - - - - - - - - - - - - - - - - - - - - -
|:\
e4 d4 | c2 e4 f2 | g2fe d2c2 | B2 d4 e2 |\
c4 B4 | A2 d4 cB | A2G2 G3^F | G8 :|\
d4 c4 | B2 e4 dc |
B2A2 A3^G | A2 a4 gf |\
e4 d4 | c2 c'4 g2 | a2(gf) e3d | d6 f2 |\
e3f g2c2 | f2 a4 d2 | e4 c2BA | B2 d4 g2 |\
e2(dc) d2B2 | c4 |]
% - - - - - - - - - - - - - - - - - - - - - - - - -
%%begintext align
%% First man and 2d. man fall back and turn Single, and cross over into the women's places, and the we.
%% do the same at the same time, then all do the same again .:| Then 1st. man turns the 2d. wo. with the
%% right-hand once round, and goes round his own Partner and falls below the 2d. couple in the middle,
%% the 1. wo. turns the 2d. man and falls above the 2d. couple in the middle, then the 1st. man and 1.
%% wo. goes the whole Figure and falls below the 2d. couple; The last Strain but once.
%% [DMDfD]
%%endtext
%%sep 1 8 500

%%sep 1 1 500
%%sep 1 1 500
